icons/unity-panel/22x22/panel/indicator-notification-read.svg

<svg version="1.1" viewBox="0 0 22 22" xmlns="http://www.w3.org/2000/svg">
 <path d="m11 4c-1.5265 0-2.5439 0.78113-3.0723 1.8379-0.52838 1.0568-0.67496 2.3531-0.80078 3.6113s-0.22877 2.4862-0.5332 3.3164c-0.15221 0.41511-0.3471 0.71969-0.58789 0.91797-0.24078 0.19829-0.53587 0.31641-1.0059 0.31641v1h12v-1c-0.46991 0-0.76502-0.11812-1.0059-0.31641-0.24078-0.19829-0.43565-0.50286-0.58789-0.91797-0.30442-0.83022-0.40738-2.0582-0.5332-3.3164s-0.27241-2.5546-0.80078-3.6113c-0.52838-1.0568-1.5457-1.8379-3.0723-1.8379zm0 1c1.2235 0 1.7686 0.46684 2.1777 1.2852 0.40914 0.81824 0.57506 2.0219 0.69922 3.2637 0.12418 1.2418 0.2087 2.516 0.5918 3.5605 0.12675 0.34569 0.36923 0.60918 0.58789 0.89062h-8.1133c0.21864-0.28149 0.46112-0.54497 0.58789-0.89062 0.3831-1.0448 0.4676-2.3189 0.5918-3.5605 0.12418-1.2418 0.2901-2.4454 0.69922-3.2637 0.40914-0.81824 0.95433-1.2852 2.1777-1.2852zm-2 11c0.01251 1.1086 0.91483 2 2.0234 2 1.1087 0 2.0109-0.89138 2.0234-2z" fill="#fff" style="font-feature-settings:normal;font-variant-alternates:normal;font-variant-caps:normal;font-variant-east-asian:normal;font-variant-ligatures:normal;font-variant-numeric:normal;font-variant-position:normal;font-variation-settings:normal;inline-size:0;isolation:auto;mix-blend-mode:normal;shape-margin:0;shape-padding:0;text-decoration-color:#000000;text-decoration-line:none;text-decoration-style:solid;text-indent:0;text-orientation:mixed;text-transform:none;white-space:normal"/>
</svg>

<?xml version="1.0" encoding="UTF-8" standalone="no"?>
<svg
   viewBox="0 0 22 22"
   version="1.1"
   id="svg10"
   sodipodi:docname="indicator-notification-read.svg"
   inkscape:version="1.1.1 (3bf5ae0d25, 2021-09-20)"
   xmlns:inkscape="http://www.inkscape.org/namespaces/inkscape"
   xmlns:sodipodi="http://sodipodi.sourceforge.net/DTD/sodipodi-0.dtd"
   xmlns="http://www.w3.org/2000/svg"
   xmlns:svg="http://www.w3.org/2000/svg">
  <defs
     id="defs14" />
  <sodipodi:namedview
     id="namedview12"
     pagecolor="#ffffff"
     bordercolor="#666666"
     borderopacity="1.0"
     inkscape:pageshadow="2"
     inkscape:pageopacity="0.0"
     inkscape:pagecheckerboard="0"
     showgrid="true"
     inkscape:zoom="17.099128"
     inkscape:cx="11.023954"
     inkscape:cy="10.994713"
     inkscape:window-width="1852"
     inkscape:window-height="1043"
     inkscape:window-x="1434"
     inkscape:window-y="0"
     inkscape:window-maximized="1"
     inkscape:current-layer="svg10">
    <inkscape:grid
       type="xygrid"
       id="grid849" />
  </sodipodi:namedview>
  <path
     d="M 11.00007,4 C 9.47357,4 8.45617,4.78113 7.92777,5.8379 7.39939,6.8947 7.25281,8.191 7.12699,9.4492 7.00117,10.7074 6.89822,11.9354 6.59379,12.7656 6.44158,13.18071 6.24669,13.48529 6.0059,13.68357 5.76512,13.88186 5.47003,13.99998 5,13.99998 v 1 h 12 v -1 c -0.46991,0 -0.76502,-0.11812 -1.0059,-0.31641 C 15.75332,13.48528 15.55845,13.18071 15.40621,12.7656 15.10179,11.93538 14.99883,10.7074 14.87301,9.4492 14.74719,8.191 14.6006,6.8946 14.07223,5.8379 13.54385,4.7811 12.52653,4 10.99993,4 Z m 0,1 c 1.2235,0 1.7686,0.46684 2.1777,1.2852 0.40914,0.81824 0.57506,2.0219 0.69922,3.2637 0.12418,1.2418 0.2087,2.516 0.5918,3.5605 0.12675,0.34569 0.36923,0.60918 0.58789,0.89062 H 6.94338 C 7.16202,13.71853 7.4045,13.45505 7.53127,13.1094 7.91437,12.0646 7.99887,10.7905 8.12307,9.5489 8.24725,8.3071 8.41317,7.1035 8.82229,6.2852 9.23143,5.46696 9.77662,5 10.99999,5 Z m -2,11 c 0.01251,1.1086 0.91483,2 2.0234,2 1.1087,0 2.0109,-0.89138 2.0234,-2 z"
     fill="#808080"
     style="font-variant-ligatures:normal;font-variant-position:normal;font-variant-caps:normal;font-variant-numeric:normal;font-variant-alternates:normal;font-variant-east-asian:normal;font-feature-settings:normal;font-variation-settings:normal;text-indent:0;text-decoration-line:none;text-decoration-style:solid;text-decoration-color:#000000;text-transform:none;text-orientation:mixed;white-space:normal;shape-padding:0;shape-margin:0;inline-size:0;isolation:auto;mix-blend-mode:normal;fill:#ffffff;fill-opacity:1"
     id="path2" />
</svg>
